X:1
T: Banks Hornpipe
C:Parazotti
R:Reel
Q:232
K:Eb
M:4/4
L:1/8
|:((3B,CD)|E2 G4 ((3BGE)|D2F4 ((3AFD)|A,2c4de|=AB cB _AG FE|
G,2B4c2|A,2c2 cd eE|DE FG AF DG|E2G2 E2:|
|:g1/2a1/2g1/2f1/2|g2E2 E2 ((3gbg)|f2D2 D2gf|e2c2 c2fe|dc B=A B2b2|
DB fB DB fB|EB gB EB gB|=AB cd ec Ac|B=A Bc B_A GF|
EG BG eG FE|DF BF dF ED|CE AB cB AG|FG FE DC B,A,|
G,E BE G,E BE|A,E cE A,E cE|DE FG AF DF|E2G2 E2:|
gf|ge BG Eg f=e|fd BF Df ed|ec GE Ce dc|dB FD B,C B,A,|
G,B, EG A,C FA|B,E GE DF Ac|Be dc ((3BcB) ((3AGF)|((3EGB) ((3FED) E4||
